packages/icons/src/components/ProductIcon/assets/dedilink.svg

<svg width="64" height="64" viewBox="0 0 64 64" fill="none" xmlns="http://www.w3.org/2000/svg">
<path d="M0 16C0 7.16344 7.16344 0 16 0H48C56.8366 0 64 7.16344 64 16V48C64 56.8366 56.8366 64 48 64H16C7.16344 64 0 56.8366 0 48V16Z" fill="#F1EEFC" className="fillWeak"/>
<path fill-rule="evenodd" clip-rule="evenodd" d="M48 2H16C8.26801 2 2 8.26801 2 16V48C2 55.732 8.26801 62 16 62H48C55.732 62 62 55.732 62 48V16C62 8.26801 55.732 2 48 2ZM16 0C7.16344 0 0 7.16344 0 16V48C0 56.8366 7.16344 64 16 64H48C56.8366 64 64 56.8366 64 48V16C64 7.16344 56.8366 0 48 0H16Z" fill="#F1EEFC" className="fillWeak"/>
<path d="M11.5 45.5C10.9477 45.5 10.5 45.9477 10.5 46.5V54C10.5 54.5523 10.9477 55 11.5 55C12.0523 55 12.5 54.5523 12.5 54V46.5C12.5 45.9477 12.0523 45.5 11.5 45.5Z" fill="#A060F6" className="fillStrong"/>
<path d="M11.5 20.5C10.9477 20.5 10.5 20.9477 10.5 21.5V42.5C10.5 43.0523 10.9477 43.5 11.5 43.5C12.0523 43.5 12.5 43.0523 12.5 42.5V21.5C12.5 20.9477 12.0523 20.5 11.5 20.5Z" fill="#A060F6" className="fillStrong"/>
<path fill-rule="evenodd" clip-rule="evenodd" d="M27.5 16.5C25.8431 16.5 24.5 17.8431 24.5 19.5C24.5 21.1569 25.8431 22.5 27.5 22.5C29.1569 22.5 30.5 21.1569 30.5 19.5C30.5 17.8431 29.1569 16.5 27.5 16.5ZM27.5 18.5C28.0523 18.5 28.5 18.9477 28.5 19.5C28.5 20.0523 28.0523 20.5 27.5 20.5C26.9477 20.5 26.5 20.0523 26.5 19.5C26.5 18.9477 26.9477 18.5 27.5 18.5Z" fill="#A060F6" className="fillStrong"/>
<path d="M11.5 9C10.9477 9 10.5 9.44772 10.5 10V17.5C10.5 18.0523 10.9477 18.5 11.5 18.5C12.0523 18.5 12.5 18.0523 12.5 17.5V10C12.5 9.44772 12.0523 9 11.5 9Z" fill="#A060F6" className="fillStrong"/>
<path fill-rule="evenodd" clip-rule="evenodd" d="M35.167 32.9004C30.9587 32.9004 27.5281 36.0124 26.4355 40.1094C24.4888 40.3792 22.9161 41.7126 22.0732 43.5H14.3262C13.9141 42.3353 12.8059 41.5 11.5 41.5C9.84315 41.5 8.5 42.8431 8.5 44.5C8.5 46.1569 9.84315 47.5 11.5 47.5C12.8059 47.5 13.9141 46.6647 14.3262 45.5H21.4756C21.4271 45.8361 21.4004 46.1787 21.4004 46.5254C21.4004 49.3014 22.9764 51.7762 25.332 52.6602C25.6923 52.7953 26.2554 52.873 26.8193 52.9307C27.4343 52.9936 28.2116 53.046 29.0967 53.0898C29.1145 53.0907 29.1325 53.0918 29.1504 53.0918L45.8838 53.0996C45.9016 53.0996 45.9197 53.0995 45.9375 53.0986C46.7857 53.0576 47.5302 53.0087 48.1211 52.9502C48.6674 52.8961 49.2027 52.824 49.5498 52.7031C51.9711 51.8596 53.5996 49.3463 53.5996 46.5254C53.5994 43.4786 51.6639 40.7325 48.8936 40.166C48.6015 37.7395 46.6579 35.7629 44.167 35.7627C43.3838 35.7627 42.6476 35.9626 42.001 36.3115C40.3513 34.2424 37.9185 32.9005 35.167 32.9004ZM35.167 35.0996C37.459 35.0997 39.534 36.3801 40.8066 38.4287C40.9811 38.7095 41.2727 38.8972 41.6006 38.9395C41.9286 38.9816 42.2592 38.8732 42.499 38.6455C42.9555 38.2123 43.539 37.9629 44.167 37.9629C45.5121 37.9631 46.7334 39.1584 46.7334 40.7998C46.7334 40.8896 46.73 40.9782 46.7227 41.0654C46.6965 41.3766 46.8035 41.6848 47.0176 41.9121C47.229 42.1367 47.5249 42.2609 47.833 42.2568C49.6631 42.2568 51.4002 44.0187 51.4004 46.5254C51.4004 48.5502 50.2383 50.134 48.8262 50.626C48.8291 50.6249 48.8099 50.6312 48.7588 50.6426C48.7101 50.6534 48.6442 50.6662 48.5605 50.6797C48.3926 50.7067 48.1739 50.734 47.9043 50.7607C47.3689 50.8138 46.6711 50.8594 45.8477 50.8994L29.1885 50.8916C28.3285 50.8489 27.6 50.7992 27.043 50.7422C26.7623 50.7135 26.5357 50.6833 26.3633 50.6543C26.1754 50.6227 26.1045 50.6006 26.1045 50.6006C24.7238 50.0824 23.5996 48.5155 23.5996 46.5254C23.5998 44.0225 25.3312 42.2632 27.1582 42.2578L27.3047 42.2607C27.8445 42.2712 28.3129 41.8877 28.4092 41.3564C29.0723 37.6966 31.9214 35.0996 35.167 35.0996ZM11.5 43.5C12.0523 43.5 12.5 43.9477 12.5 44.5C12.5 45.0523 12.0523 45.5 11.5 45.5C10.9477 45.5 10.5 45.0523 10.5 44.5C10.5 43.9477 10.9477 43.5 11.5 43.5Z" fill="#521094" className="fill"/>
<path d="M34.5 18.5C33.9477 18.5 33.5 18.9477 33.5 19.5C33.5 20.0523 33.9477 20.5 34.5 20.5H49.5L49.6025 20.4951C50.1067 20.4438 50.5 20.0177 50.5 19.5C50.5 18.9823 50.1067 18.5562 49.6025 18.5049L49.5 18.5H34.5Z" fill="#521094" className="fill"/>
<path fill-rule="evenodd" clip-rule="evenodd" d="M24.5 12C21.7386 12 19.5 14.2386 19.5 17V18.5H14.3262C13.9141 17.3353 12.8059 16.5 11.5 16.5C9.84315 16.5 8.5 17.8431 8.5 19.5C8.5 21.1569 9.84315 22.5 11.5 22.5C12.8059 22.5 13.9141 21.6647 14.3262 20.5H19.5V22L19.5068 22.2568C19.6405 24.8989 21.8247 27 24.5 27H50.5L50.7568 26.9932C53.3989 26.8595 55.5 24.6753 55.5 22V17C55.5 14.3247 53.3989 12.1405 50.7568 12.0068L50.5 12H24.5ZM50.5 14C52.1569 14 53.5 15.3431 53.5 17V22C53.5 23.6569 52.1569 25 50.5 25H24.5C22.8431 25 21.5 23.6569 21.5 22V17C21.5 15.3431 22.8431 14 24.5 14H50.5ZM11.5 18.5C12.0523 18.5 12.5 18.9477 12.5 19.5C12.5 20.0523 12.0523 20.5 11.5 20.5C10.9477 20.5 10.5 20.0523 10.5 19.5C10.5 18.9477 10.9477 18.5 11.5 18.5Z" fill="#521094" className="fill"/>
</svg>

<svg xmlns="http://www.w3.org/2000/svg" width="64" height="64" fill="none" viewBox="0 0 64 64">
    <path fill="#f1eefc" d="M0 16C0 7.163 7.163 0 16 0h32c8.837 0 16 7.163 16 16v32c0 8.837-7.163 16-16 16H16C7.163 64 0 56.837 0 48z" className="fillWeak"/>
    <path fill="#f1eefc" fill-rule="evenodd" d="M48 2H16C8.268 2 2 8.268 2 16v32c0 7.732 6.268 14 14 14h32c7.732 0 14-6.268 14-14V16c0-7.732-6.268-14-14-14M16 0C7.163 0 0 7.163 0 16v32c0 8.837 7.163 16 16 16h32c8.837 0 16-7.163 16-16V16c0-8.837-7.163-16-16-16z" className="fillWeak" clip-rule="evenodd"/>
    <path fill="#a060f6" d="M11.5 45.5a1 1 0 0 0-1 1V54a1 1 0 1 0 2 0v-7.5a1 1 0 0 0-1-1m0-25a1 1 0 0 0-1 1v21a1 1 0 1 0 2 0v-21a1 1 0 0 0-1-1" className="fillStrong"/>
    <path fill="#a060f6" fill-rule="evenodd" d="M27.5 16.5a3 3 0 1 0 0 6 3 3 0 0 0 0-6m0 2a1 1 0 1 1 0 2 1 1 0 0 1 0-2" className="fillStrong" clip-rule="evenodd"/>
    <path fill="#a060f6" d="M11.5 9a1 1 0 0 0-1 1v7.5a1 1 0 1 0 2 0V10a1 1 0 0 0-1-1" className="fillStrong"/>
    <path fill="#521094" fill-rule="evenodd" d="M35.167 32.9c-4.208 0-7.639 3.112-8.731 7.21-1.947.27-3.52 1.603-4.363 3.39h-7.747a2.998 2.998 0 0 0-5.826 1 3 3 0 0 0 5.826 1h7.15a7 7 0 0 0-.076 1.025c0 2.776 1.576 5.251 3.932 6.135.36.135.923.213 1.487.27.615.064 1.393.116 2.278.16l.053.002 16.734.008.053-.001a45 45 0 0 0 2.184-.149c.546-.054 1.082-.126 1.429-.247 2.421-.843 4.05-3.357 4.05-6.178 0-3.046-1.936-5.792-4.706-6.359-.292-2.426-2.236-4.403-4.727-4.403-.783 0-1.52.2-2.166.549-1.65-2.07-4.082-3.411-6.834-3.412m0 2.2c2.292 0 4.367 1.28 5.64 3.329a1.1 1.1 0 0 0 1.692.216 2.4 2.4 0 0 1 1.668-.682c1.345 0 2.566 1.195 2.566 2.837q0 .135-.01.265a1.1 1.1 0 0 0 1.11 1.192c1.83 0 3.567 1.762 3.567 4.268 0 2.025-1.162 3.609-2.574 4.101l-.067.017q-.073.016-.199.037-.25.04-.656.08c-.535.054-1.233.1-2.056.14l-16.66-.008a43 43 0 0 1-2.145-.15q-.42-.043-.68-.088a2 2 0 0 1-.258-.053c-1.381-.519-2.505-2.085-2.505-4.076 0-2.502 1.731-4.262 3.558-4.267l.147.003a1.1 1.1 0 0 0 1.104-.905c.663-3.66 3.512-6.256 6.758-6.256M11.5 43.5a1 1 0 1 1 0 2 1 1 0 0 1 0-2" className="fill" clip-rule="evenodd"/>
    <path fill="#521094" d="M34.5 18.5a1 1 0 1 0 0 2h15l.102-.005a1 1 0 0 0 0-1.99L49.5 18.5z" className="fill"/>
    <path fill="#521094" fill-rule="evenodd" d="M24.5 12a5 5 0 0 0-5 5v1.5h-5.174a2.998 2.998 0 0 0-5.826 1 3 3 0 0 0 5.826 1H19.5V22l.007.257A5 5 0 0 0 24.5 27h26l.257-.007A5 5 0 0 0 55.5 22v-5a5 5 0 0 0-4.743-4.993L50.5 12zm26 2a3 3 0 0 1 3 3v5a3 3 0 0 1-3 3h-26a3 3 0 0 1-3-3v-5a3 3 0 0 1 3-3zm-39 4.5a1 1 0 1 1 0 2 1 1 0 0 1 0-2" className="fill" clip-rule="evenodd"/>
</svg>
